icons/monitor-mac.svg

<svg width="24" height="24" viewBox="0 0 24 24" fill="none" xmlns="http://www.w3.org/2000/svg">
<path fill-rule="evenodd" clip-rule="evenodd" d="M2.25 5.20001C2.25 3.8858 3.3858 2.75 4.70001 2.75H19.3C20.5851 2.75 21.75 3.75725 21.75 5.20001V14.8C21.75 16.1142 20.6142 17.25 19.3 17.25H15.8496L16.1397 19.5714C16.2394 20.0546 16.0418 20.4825 15.7903 20.7568C15.5326 21.0379 15.1405 21.25 14.7 21.25H9.29999C8.85946 21.25 8.46733 21.0379 8.20963 20.7568C7.95817 20.4825 7.76052 20.0546 7.86022 19.5714L8.15039 17.25H4.70001C3.41495 17.25 2.25 16.2428 2.25 14.8V5.20001ZM9.66206 17.25H14.3379L14.6504 19.75H9.34956L9.66206 17.25ZM4.70001 4.25C4.21423 4.25 3.75 4.71423 3.75 5.20001V12.55H20.25V5.20001C20.25 4.64277 19.8149 4.25 19.3 4.25H4.70001ZM20.25 14.05V14.8C20.25 15.2858 19.7858 15.75 19.3 15.75H4.70001C4.18508 15.75 3.75 15.3572 3.75 14.8V14.05H20.25Z" fill="black"/>
</svg>

<svg xmlns="http://www.w3.org/2000/svg" fill="none" viewBox="0 0 24 24">
  <path fill="#000" fill-rule="evenodd" d="M2.25 5.2c0-1.314 1.136-2.45 2.45-2.45h14.6c1.285 0 2.45 1.007 2.45 2.45v9.6c0 1.314-1.136 2.45-2.45 2.45h-3.45l.29 2.321c.1.484-.098.912-.35 1.186a1.5 1.5 0 0 1-1.09.493H9.3a1.5 1.5 0 0 1-1.09-.493c-.252-.274-.45-.702-.35-1.186l.29-2.321H4.7c-1.285 0-2.45-1.007-2.45-2.45V5.2Zm7.412 12.05h4.676l.312 2.5h-5.3l.312-2.5ZM4.7 4.25c-.486 0-.95.464-.95.95v7.35h16.5V5.2a.936.936 0 0 0-.95-.95H4.7Zm15.55 9.8v.75c0 .486-.464.95-.95.95H4.7a.936.936 0 0 1-.95-.95v-.75h16.5Z" clip-rule="evenodd"/>
</svg>
